modules/linea-weather/icons/weather-hail.svg

<svg xmlns="http://www.w3.org/2000/svg" width="64" height="64" viewBox="0 0 64 64"><path fill="none" stroke="#000" stroke-width="2" stroke-miterlimit="10" d="M55 40c4.565 0 8-3.435 8-8 0-4.565-3.435-9-8-9 0-11.414-9.586-20-21-20-10.102 0-19.2 6.423-21 16h-2C5.292 19 1 24.292 1 30s4.292 10 10 10h44zm-31 5l-5 11m-5-11L9 56m25-11l-5 11m15-11l-5 11m15-11l-5 11m-32 3l-1 2m-9-2l-1 2m21-2l-1 2m11-2l-1 2m11-2l-1 2"/></svg>

<svg xmlns="http://www.w3.org/2000/svg" width="64" height="64" viewBox="0 0 64 64"><path fill="none" stroke="#000" stroke-width="2" stroke-miterlimit="10" d="M55 40c4.565 0 8-3.435 8-8 0-4.565-3.435-9-8-9 0-11.414-9.586-20-21-20-10.102 0-19.2 6.423-21 16h-2C5.292 19 1 24.292 1 30s4.292 10 10 10h44zM24 45l-5 11M14 45L9 56M34 45l-5 11M44 45l-5 11M54 45l-5 11M17 59l-1 2M7 59l-1 2M27 59l-1 2M37 59l-1 2M47 59l-1 2"/></svg>
